X:1
T:Title
%%score { 1 | 2 }
L:1/8
M:4/4
K:G
V:1 treble nm="Grand Piano"
V:2 bass 
V:1
 z4 z2[Q:1/4=100] B>c | B2 A>^G A2 E>F | [B,G]4 [B,D]2 [B,G][DF] | E2 F>G A2 G>E |[M:3/4] [B,D]6 | %5
[M:1/4] B>c |[M:4/4] B2 A>^G A2 E>F | [B,G]4 [DB]2 [=Fd]>[Fd] | [Ec]2 E>[EG] F2 G>A | G6 z2 | %10
 (3DDD E>[CDF] [B,DG]2 A>G | B4 B4 | (3[Ec][Ec][Ec] [EG]>[^DA] [=DB]2 [^D^c]>[Dc] | %13
[M:5/4] [Dd]6 z2 [Fd]>[Fc] |[M:4/4] B>B B>B B2 A>G | [EG]>[Ec] [Ec]>[Ec] [Ec]4 | (3BBB B>B B2 G>B | %17
[M:7/8] A- A3 [B,G]3 |] %18
V:2
 z4 z2 [G,D]>[G,E] | [D,G,D]2 [D,F,C]>[D,=F,C] [D,^F,C]2 [D,F,C]>[D,C] | %2
 [G,,D,]4 [G,,G,]2 [G,,G,][B,,G,] | [C,G,C]2 [C,G,C]>[C,G,C] [C,E,C]2 [C,E,C]>[C,G,C] | %4
[M:3/4] [G,,G,]6 |[M:1/4] [G,D]>[G,E] |[M:4/4] [D,G,D]2 [D,F,C]>[D,E,C] [D,F,C]2 [D,F,C]>[D,C] | %7
 [G,,D,]4 [G,,G,]2 [B,,G,]>[B,,G,] | [C,G,]2 [C,C]>[C,C] [D,CD]2 [D,B,D]>[D,CD] | [G,B,D]6 z2 | %10
 (3[G,B,][G,B,][G,B,] [C,G,C]>A,, G,,2 [D,CD]>[D,B,D] | [G,D]4 [G,D]4 | %12
 (3[C,G,][C,G,][C,G,] [C,C]>[C,B,] [G,,G,]2 [A,,G,]>[A,,G,] |[M:5/4] [D,F,]6 z2 [D,A,]>[D,D] | %14
[M:4/4][K:treble] [G,DG]>[G,DG] [G,DG]>[G,DG] [G,DG]2 [G,D=F]>[G,B,F] | %15
 [C,C]>[C,G,] [C,G,]>[C,G,] [C,G,]4 | %16
 (3[D,G,D][D,G,D][D,G,D] [D,G,D]>[D,G,D] [D,G,D]2 [D,B,D]>[D,G,D] | %17
[M:7/8] [D,F,C]- [D,F,C]3 [G,,D,G,]3 |] %18

